X: 240
T: Earl's Chair
R: reel
M: 4/4
L: 1/8
K: Dmaj
~B3B BAFA|B2 dB BAFB|A~F3 D~F3|AFdB ADFA|
~B3B BAFA|B2 dB BAFB|AFAB ~d3f|1 edef d3 A:|2 edef d3 f||
~e3f ~d3f|edef dB A2|e2 ef ~d3e|fedB ADFA|
~e3f d~B3|g~B3 defg|afbf afeg|fedB ADFA:|

